X:8
T:Ashover simple chords 30
M:3/4
L:1/8
K:D
f/g/[aD,F,A,] fd ec | A[dG,B,D] BG F2 | E[DD,F,A,] FA Bg | f[eE,G,B,] fd c2 | f/g/[aD,F,A,] fd ec |
A[dG,B,D] BG F2 | E[DD,F,A,] FA Bg | f[eA,CE] dc d2 | f/g/[aD,F,A,] fd ec |
A[dG,B,D] BG F2 | E[DD,F,A,] FA Bg | f[eE,G,B,] fd c2 | f/g/[aD,F,A,] fd ec |
A[dG,B,D] BG F2 | E[DD,F,A,] FA Bg | f[eA,CE] dc d2 | Ac eg ec |
[AD,F,A,]d fa fd | [AA,CE]c eg ec | [BE,^G,B,D]e d2<c2 | [AA,CE]c eg ec |
[AD,F,A,]d fa fd | [AA,CE]c AB gf | [eA,CE]d cd2 |


